src/icons/svgs/24/smile.svg

<svg width="24" height="24" viewBox="0 0 24 24" fill="none" xmlns="http://www.w3.org/2000/svg">
<path d="M15.125 11.375C15.8156 11.375 16.3746 10.8184 16.3746 10.125C16.3746 9.43164 15.8156 8.875 15.125 8.875C14.4297 8.875 13.8742 9.43164 13.8742 10.125C13.8742 10.8184 14.4297 11.375 15.125 11.375ZM8.83984 11.375C9.53516 11.375 10.0906 10.8184 10.0906 10.125C10.0906 9.43164 9.53516 8.875 8.83984 8.875C8.14922 8.875 7.59023 9.43164 7.59023 10.125C7.59023 10.8184 8.18359 11.375 8.83984 11.375ZM15.2812 14.2109C14.4688 15.1875 13.2695 15.75 12 15.75C10.7305 15.75 9.53086 15.1934 8.71719 14.2117C8.38605 13.8113 7.79492 13.7625 7.39727 14.0896C7 14.4219 6.94922 15.0117 7.27734 15.4102C8.4457 16.8164 10.1723 17.6262 12 17.6262C13.8277 17.6262 15.5523 16.8164 16.7227 15.4102C17.0585 15.0148 17.0018 14.4238 16.6044 14.0918C16.207 13.7617 15.6133 13.8125 15.2812 14.2109ZM12 2C6.47656 2 2 6.47656 2 12C2 17.5234 6.47656 22 12 22C17.5234 22 22 17.5234 22 12C22 6.47656 17.5234 2 12 2ZM12 20.125C7.51953 20.125 3.875 16.4801 3.875 12C3.875 7.51992 7.51953 3.875 12 3.875C16.4805 3.875 20.125 7.51992 20.125 12C20.125 16.4801 16.4805 20.125 12 20.125Z" fill="black"/>
</svg>

<svg width="24" height="24" viewBox="0 0 24 24" xmlns="http://www.w3.org/2000/svg">
    <path d="M15.125 11.375c.69 0 1.25-.557 1.25-1.25s-.56-1.25-1.25-1.25c-.695 0-1.25.557-1.25 1.25s.555 1.25 1.25 1.25zm-6.285 0c.695 0 1.25-.557 1.25-1.25s-.555-1.25-1.25-1.25c-.69 0-1.25.557-1.25 1.25s.594 1.25 1.25 1.25zm6.441 2.836A4.263 4.263 0 0 1 12 15.75a4.25 4.25 0 0 1-3.283-1.538.939.939 0 0 0-1.32-.122.941.941 0 0 0-.12 1.32A6.132 6.132 0 0 0 12 17.626c1.828 0 3.552-.81 4.723-2.216a.932.932 0 0 0-.119-1.318.942.942 0 0 0-1.323.119zM12 2C6.477 2 2 6.477 2 12s4.477 10 10 10 10-4.477 10-10S17.523 2 12 2zm0 18.125c-4.48 0-8.125-3.645-8.125-8.125S7.52 3.875 12 3.875 20.125 7.52 20.125 12 16.48 20.125 12 20.125z"/>
</svg>
